!!!!SEGMENT: pl-kk--kk-i-111--005-002_anonim--deo-gratias-per-8vam-pasche-2dum.krn
!!!id: 18xx:2565
!!!COM: Anonim
!!!COM-rism: pe30004985
!!!CDT:
!!!CNT:
!!!OTL: Deo gratias – Per 8vam Pasche 2dum
!!!PDT: 1824
!!!SMS-siglum: PL-Kk
!!!SMS-shelfmark: Kk.I.111
!!!NIFC-rismID: 1001157679
!!!URL-scan: http://repozytorium.nifc.pl/skany/pl-kk-nut--i-111
!!!ONB-nifc: UWAGA: A, T1, T2. Podział na poszególne Deo gratias. A: skan 0002 (m.in)
!!!SMS-variant:
!!!SMS-altvar:
**kern	**text	**kern	**text	**kern	**text
*part3	*part3	*part2	*part2	*part1	*part1
*staff3	*staff3	*staff2	*staff2	*staff1	*staff1
*I"Tenore Vagante.	*	*I"Tenore Chorale.	*	*I"Alto.	*
*I'T 2	*	*I'T 1	*	*I'A	*
*clefC4	*	*clefC4	*	*clefC3	*
*k[]	*	*k[]	*	*k[]	*
*M2/1	*	*M2/1	*	*M2/1	*
*met(C|)	*	*met(C|)	*	*met(C|)	*
*all\right	*	*	*	*all\right	*
=1-	=1-	=1-	=1-	=1-	=1-
!LO:TX:t=P:problem:kreska pseudotaktowa	!	!	!	!	!
!	!	!LO:TX:t=P:problem:kreska pseudotaktowa	!	!	!
!	!	!	!	!LO:TX:t=P:problem:kreska pseudotaktowa	!
1Bn	De-	1G	De-	1d	De-
!LO:TX:t=P:problem:kreska pseudotaktowa	!	!LO:TX:t=P:problem:kreska pseudotaktowa	!	!LO:TX:t=P:problem:kreska pseudotaktowa	!
0c	-o	1G	-o	1e	-o
=2-	=2-	=2-	=2-	=2-	=2-
!	!	!LO:TX:t=P:problem:kreska pseudotaktowa	!	!LO:TX:t=P:problem:kreska pseudotaktowa	!
.	.	1G	gra-	1e	.
*2\right	*	*	*	*2\right	*
!	!	!LO:TX:t=P:problem:kreska pseudotaktowa	!	!	!
2d\	gra-	1G	-ti-	2.d\	gra-
!LO:TX:t=P:problem:kreska pseudotaktowa	!	!	!	!	!
2Bn\	.	.	.	.	.
!	!	!	!	!LO:TX:t=P:problem:kreska pseudotaktowa	!
.	.	.	.	4e\	.
=3-	=3-	=3-	=3-	=3-	=3-
!	!	!LO:TX:t=P:problem:kreska pseudotaktowa	!	!LO:TX:t=P:problem:kreska pseudotaktowa	!
2A\	.	1A	-as	1f	.
!LO:TX:t=P:problem:kreska pseudotaktowa	!	!	!	!	!
2B\	.	.	.	.	.
!	!	!LO:TX:t=P:problem:kreska pseudotaktowa	!	!	!
2c\	.	1G	al-	2e\	-ti-
!	!	!	!	!LO:TX:t=P:problem:kreska pseudotaktowa	!
4c\	.	.	.	2e\	-as
!LO:TX:t=P:problem:kreska pseudotaktowa	!	!	!	!	!
4B\	-ti-	.	.	.	.
=4-	=4-	=4-	=4-	=4-	=4-
!	!	!LO:TX:t=P:problem:kreska pseudotaktowa	!	!	!
2A\	-as	1F	-le-	2d\	.
!LO:TX:t=P:problem:kreska pseudotaktowa	!	!	!	!LO:TX:t=P:problem:kreska pseudotaktowa	!
2c\	al-	.	.	2f\	al-
!	!	!LO:TX:t=P:problem:kreska pseudotaktowa	!	!	!
2d\	.	1G	-lu-	2f\	-le-
!	!	!	!	!LO:TX:t=P:problem:kreska pseudotaktowa	!
1c\	-le-	.	.	2e\	.
=5-	=5-	=5-	=5-	=5-	=5-
!	!	!LO:TX:t=P:problem:kreska pseudotaktowa	!	!LO:TX:t=P:problem:kreska pseudotaktowa	!
.	.	1A	-ia	1f	-lu-
!LO:TX:t=P:problem:kreska pseudotaktowa	!	!	!	!	!
2d\	-lu-	.	.	.	.
!	!	!LO:TX:t=P:problem:kreska pseudotaktowa	!	!	!
2e\	-ia	1A	al-	2g\	-ia
!	!	!	!	!LO:TX:t=P:problem:kreska pseudotaktowa	!
1d\	al-	.	.	2f#X\	al-
=6-	=6-	=6-	=6-	=6-	=6-
!	!	!LO:TX:t=P:problem:kreska pseudotaktowa	!	!	!
.	.	1G	-le-	2g\	-le-
!	!	!	!	!LO:TX:t=P:problem:kreska pseudotaktowa	!
1g	.	.	.	2d\	-lu-
!	!	!LO:TX:t=P:problem:kreska pseudotaktowa	!	!	!
.	.	1c	.	2e\	-ia
1fn\	.	.	.	1a\	a-
=7-	=7-	=7-	=7-	=7-	=7-
!	!	!LO:TX:t=P:problem:kreska pseudotaktowa	!	!	!
.	.	1Bn	.	.	.
1e	.	.	.	1g	.
!	!	!LO:TX:t=P:problem:kreska pseudotaktowa	!	!	!
.	.	1A	.	.	.
!	!	!	!	!LO:TX:t=P:problem:kreska pseudotaktowa	!
1d\	.	.	.	2f#X\	.
=8-	=8-	=8-	=8-	=8-	=8-
!	!	!LO:TX:t=P:problem:kreska pseudotaktowa	!	!	!
.	.	1G	.	2g\	.
!	!	!	!	!LO:TX:t=P:problem:kreska pseudotaktowa	!
4c\	.	.	.	2e\	.
!LO:TX:t=P:problem:kreska pseudotaktowa	!	!	!	!	!
4B\	.	.	.	.	.
!	!	!LO:TX:t=P:problem:kreska pseudotaktowa	!	!	!
2A\	-le-	1F#X	.	2d\	-lle-
!LO:TX:t=P:problem:kreska pseudotaktowa	!	!	!	!	!
2d\	.	.	.	1g\	.
=9-	=9-	=9-	=9-	=9-	=9-
!	!	!LO:TX:t=P:problem:kreska pseudotaktowa	!	!	!
2e\	.	1A	-lu-	.	.
!LO:TX:t=P:problem:kreska pseudotaktowa	!	!	!	!LO:TX:t=P:problem:kreska pseudotaktowa	!
2d\	-lu-	.	.	2f#X\	-lu-
!LO:N:vis=0	!	!LO:N:vis=0	!	!LO:N:vis=0	!
1d;>	-ia.	1G;	-ia.	1g;<	-ia.
=-	=-	=-	=-	=-	=-
*-	*-	*-	*-	*-	*-
!!!system-decoration: [(s1,s2,s3)]
!!!RDF**kern: < = below
!!!RDF**kern: > = above
!!!ENC: Marta Chmielewska
!!!END: 2021-08-04
!!!ENC: Tomasz Grochalski
!!!END: 2021-07-09
